packages/kaspersky-hexa-ui-icons/src/iconsSVGs/24/StatusHighSolid.svg

<svg width="24" height="24" viewBox="0 0 24 24" fill="none" xmlns="http://www.w3.org/2000/svg">
<path fill-rule="evenodd" clip-rule="evenodd" d="M1.41416 10.5857C0.633108 11.3668 0.633106 12.6331 1.41416 13.4142L10.5857 22.5857C11.3668 23.3668 12.6331 23.3668 13.4142 22.5857L22.5857 13.4142C23.3668 12.6331 23.3668 11.3668 22.5857 10.5857L13.4142 1.41416C12.6331 0.633108 11.3668 0.633106 10.5857 1.41416L1.41416 10.5857ZM11.9999 6.99994C12.5522 6.99994 12.9999 7.44766 12.9999 7.99994V12.9999C12.9999 13.5522 12.5522 13.9999 11.9999 13.9999C11.4477 13.9999 10.9999 13.5522 10.9999 12.9999V7.99994C10.9999 7.44766 11.4477 6.99994 11.9999 6.99994ZM12.9999 15.9999C12.9999 16.5522 12.5522 16.9999 11.9999 16.9999C11.4477 16.9999 10.9999 16.5522 10.9999 15.9999C10.9999 15.4477 11.4477 14.9999 11.9999 14.9999C12.5522 14.9999 12.9999 15.4477 12.9999 15.9999Z" fill="black"/>
</svg>

<svg xmlns="http://www.w3.org/2000/svg" width="24" height="24" fill="none" viewBox="0 0 24 24"><path fill="#000" fill-rule="evenodd" d="M1.4142 10.5857c-.781.7811-.781 2.0474 0 2.8285l9.1715 9.1715c.7811.7811 2.0474.7811 2.8285 0l9.1715-9.1715c.7811-.7811.7811-2.0474 0-2.8285l-9.1715-9.1715c-.7811-.781-2.0474-.781-2.8285 0zm10.5857-3.5858c.5523 0 1 .4478 1 1v5c0 .5523-.4477 1-1 1s-1-.4477-1-1v-5c0-.5522.4478-1 1-1m1 9c0 .5523-.4477 1-1 1s-1-.4477-1-1 .4478-1 1-1 1 .4478 1 1"/></svg>
